Newaita-dark/.places-darknight/128/folder-images.svg

<?xml version="1.0" encoding="UTF-8"?>
<svg xmlns="http://www.w3.org/2000/svg" xmlns:xlink="http://www.w3.org/1999/xlink" width="128pt" height="128pt" viewBox="0 0 128 128" version="1.1">
<defs>
<linearGradient id="linear0" gradientUnits="userSpaceOnUse" x1="254" y1="233.5" x2="254" y2="254.666672" gradientTransform="matrix(0.250024,0,0,0.250024,-0.0000152602,53.755148)">
<stop offset="0" style="stop-color:rgb(0%,0%,0%);stop-opacity:0.27451;"/>
<stop offset="1" style="stop-color:rgb(0%,0%,0%);stop-opacity:0;"/>
</linearGradient>
<radialGradient id="radial0" gradientUnits="userSpaceOnUse" cx="450.908936" cy="189.579361" fx="450.908936" fy="189.579361" r="21.166656" gradientTransform="matrix(0.000000696681,-0.31253,-0.562554,-0.000000406154,216.460851,254.381338)">
<stop offset="0" style="stop-color:rgb(0%,0%,0%);stop-opacity:0.313725;"/>
<stop offset="0.222222" style="stop-color:rgb(0%,0%,0%);stop-opacity:0.27451;"/>
<stop offset="1" style="stop-color:rgb(0%,0%,0%);stop-opacity:0;"/>
</radialGradient>
<radialGradient id="radial1" gradientUnits="userSpaceOnUse" cx="450.908936" cy="189.579361" fx="450.908936" fy="189.579361" r="21.166656" gradientTransform="matrix(-0.000000696681,0.31253,0.562554,0.000000406154,-89.448711,-30.109908)">
<stop offset="0" style="stop-color:rgb(0%,0%,0%);stop-opacity:0.313725;"/>
<stop offset="0.222222" style="stop-color:rgb(0%,0%,0%);stop-opacity:0.27451;"/>
<stop offset="1" style="stop-color:rgb(0%,0%,0%);stop-opacity:0;"/>
</radialGradient>
<radialGradient id="radial2" gradientUnits="userSpaceOnUse" cx="450.908936" cy="189.579361" fx="450.908936" fy="189.579361" r="21.166656" gradientTransform="matrix(-0.000000696681,-0.31253,0.562554,-0.000000406154,-89.448711,254.381338)">
<stop offset="0" style="stop-color:rgb(0%,0%,0%);stop-opacity:0.313725;"/>
<stop offset="0.222222" style="stop-color:rgb(0%,0%,0%);stop-opacity:0.27451;"/>
<stop offset="1" style="stop-color:rgb(0%,0%,0%);stop-opacity:0;"/>
</radialGradient>
<radialGradient id="radial3" gradientUnits="userSpaceOnUse" cx="450.908936" cy="189.579361" fx="450.908936" fy="189.579361" r="21.166656" gradientTransform="matrix(0.000000696681,0.31253,-0.562554,0.000000406154,216.460843,-30.10991)">
<stop offset="0" style="stop-color:rgb(0%,0%,0%);stop-opacity:0.313725;"/>
<stop offset="0.222222" style="stop-color:rgb(0%,0%,0%);stop-opacity:0.27451;"/>
<stop offset="1" style="stop-color:rgb(0%,0%,0%);stop-opacity:0;"/>
</radialGradient>
<linearGradient id="linear1" gradientUnits="userSpaceOnUse" x1="592.609802" y1="230.790649" x2="592.609802" y2="-531.13623" gradientTransform="matrix(0.125024,0,0,0.125024,0,83.281352)">
<stop offset="0" style="stop-color:rgb(25.882353%,25.882353%,25.882353%);stop-opacity:1;"/>
<stop offset="1" style="stop-color:rgb(38.039216%,38.039216%,38.039216%);stop-opacity:1;"/>
</linearGradient>
<linearGradient id="linear2" gradientUnits="userSpaceOnUse" x1="359.798798" y1="230.790649" x2="359.798798" y2="-531.13623" gradientTransform="matrix(0.125024,0,0,0.125024,0,83.281352)">
<stop offset="0" style="stop-color:rgb(38.039216%,38.039216%,38.039216%);stop-opacity:1;"/>
<stop offset="1" style="stop-color:rgb(45.882353%,45.882353%,45.882353%);stop-opacity:1;"/>
</linearGradient>
<linearGradient id="linear3" gradientUnits="userSpaceOnUse" x1="960.000061" y1="1735.117188" x2="960.000061" y2="295.117188" gradientTransform="matrix(0.264583,0,0,0.264583,-0.000013,-225.583084)">
<stop offset="0" style="stop-color:rgb(25.882353%,25.882353%,25.882353%);stop-opacity:1;"/>
<stop offset="1" style="stop-color:rgb(38.039216%,38.039216%,38.039216%);stop-opacity:1;"/>
</linearGradient>
</defs>
<g id="surface1">
<path style=" stroke:none;fill-rule:nonzero;fill:url(#linear0);" d="M 15.875 112.136719 L 111.136719 112.136719 L 111.136719 117.429688 L 15.875 117.429688 Z M 15.875 112.136719 "/>
<path style=" stroke:none;fill-rule:nonzero;fill:url(#radial0);" d="M 111.136719 112.136719 L 121.71875 112.136719 L 121.71875 106.84375 L 111.136719 106.84375 Z M 111.136719 112.136719 "/>
<path style=" stroke:none;fill-rule:nonzero;fill:url(#radial1);" d="M 15.875 112.136719 L 5.292969 112.136719 L 5.292969 117.429688 L 15.875 117.429688 Z M 15.875 112.136719 "/>
<path style=" stroke:none;fill-rule:nonzero;fill:url(#radial2);" d="M 15.875 112.136719 L 5.292969 112.136719 L 5.292969 106.84375 L 15.875 106.84375 Z M 15.875 112.136719 "/>
<path style=" stroke:none;fill-rule:nonzero;fill:url(#radial3);" d="M 111.136719 112.136719 L 121.71875 112.136719 L 121.71875 117.429688 L 111.136719 117.429688 Z M 111.136719 112.136719 "/>
<path style=" stroke:none;fill-rule:nonzero;fill:url(#linear1);" d="M 29.105469 16.875 L 115.105469 16.875 C 118.027344 16.875 120.398438 19.246094 120.398438 22.167969 L 120.398438 42.015625 C 120.398438 44.9375 118.027344 47.304688 115.105469 47.304688 L 29.105469 47.304688 C 26.183594 47.304688 23.816406 44.9375 23.816406 42.015625 L 23.816406 22.167969 C 23.816406 19.246094 26.183594 16.875 29.105469 16.875 Z M 29.105469 16.875 "/>
<path style=" stroke:none;fill-rule:nonzero;fill:rgb(90.196079%,90.196079%,90.196079%);fill-opacity:0.588235;" d="M 29.105469 16.875 C 26.175781 16.875 23.816406 19.238281 23.816406 22.167969 L 23.816406 22.832031 C 23.816406 19.898438 26.175781 17.539062 29.105469 17.539062 L 115.105469 17.539062 C 118.035156 17.539062 120.398438 19.898438 120.398438 22.832031 L 120.398438 22.167969 C 120.398438 19.238281 118.035156 16.875 115.105469 16.875 Z M 29.105469 16.875 "/>
<path style=" stroke:none;fill-rule:nonzero;fill:rgb(12.941177%,12.941177%,12.941177%);fill-opacity:1;" d="M 29.105469 16.5 C 25.972656 16.5 23.441406 19.035156 23.441406 22.167969 L 23.441406 42.015625 C 23.441406 45.148438 25.972656 47.683594 29.105469 47.683594 L 115.105469 47.683594 C 118.238281 47.683594 120.773438 45.148438 120.773438 42.015625 L 120.773438 22.167969 C 120.773438 19.035156 118.238281 16.5 115.105469 16.5 Z M 29.105469 17.25 L 115.105469 17.25 C 117.835938 17.25 120.023438 19.4375 120.023438 22.167969 L 120.023438 42.015625 C 120.023438 44.746094 117.835938 46.933594 115.105469 46.933594 L 29.105469 46.933594 C 26.375 46.933594 24.191406 44.746094 24.191406 42.015625 L 24.191406 22.167969 C 24.191406 19.4375 26.375 17.25 29.105469 17.25 Z M 29.105469 17.25 "/>
<path style=" stroke:none;fill-rule:nonzero;fill:url(#linear2);" d="M 10.585938 27.460938 C 7.652344 27.460938 5.292969 29.820312 5.292969 32.753906 L 5.292969 106.84375 C 5.292969 109.773438 7.652344 112.136719 10.585938 112.136719 L 116.429688 112.136719 C 119.359375 112.136719 121.71875 109.773438 121.71875 106.84375 L 121.71875 40.691406 L 50.277344 40.691406 C 47.34375 40.691406 44.984375 38.332031 44.984375 35.398438 L 44.984375 27.460938 Z M 10.585938 27.460938 "/>
<path style=" stroke:none;fill-rule:nonzero;fill:rgb(0%,0%,0%);fill-opacity:0.196078;" d="M 10.585938 112.136719 C 7.652344 112.136719 5.292969 109.777344 5.292969 106.84375 L 5.292969 106.183594 C 5.292969 109.113281 7.652344 111.472656 10.585938 111.472656 L 116.429688 111.472656 C 119.359375 111.472656 121.71875 109.113281 121.71875 106.183594 L 121.71875 106.84375 C 121.71875 109.777344 119.359375 112.136719 116.429688 112.136719 Z M 10.585938 112.136719 "/>
<path style=" stroke:none;fill-rule:nonzero;fill:rgb(90.196079%,90.196079%,90.196079%);fill-opacity:0.937255;" d="M 10.585938 27.460938 C 7.652344 27.460938 5.292969 29.820312 5.292969 32.753906 L 5.292969 33.414062 C 5.292969 30.484375 7.652344 28.121094 10.585938 28.121094 L 44.984375 28.121094 L 44.984375 27.460938 Z M 10.585938 27.460938 "/>
<path style=" stroke:none;fill-rule:nonzero;fill:rgb(90.196079%,90.196079%,90.196079%);fill-opacity:0.937255;" d="M 49.945312 41.023438 C 47.011719 41.023438 44.652344 38.660156 44.652344 35.730469 L 44.652344 35.070312 C 44.652344 38 47.011719 40.367188 49.945312 40.359375 L 121.71875 40.359375 L 121.71875 41.023438 Z M 49.945312 41.023438 "/>
<path style=" stroke:none;fill-rule:nonzero;fill:rgb(12.941177%,12.941177%,12.941177%);fill-opacity:1;" d="M 10.585938 27.085938 C 7.453125 27.085938 4.917969 29.621094 4.917969 32.753906 L 4.917969 106.84375 C 4.917969 109.976562 7.453125 112.511719 10.585938 112.511719 L 116.429688 112.511719 C 119.5625 112.511719 122.09375 109.976562 122.09375 106.84375 L 122.09375 39.941406 L 50.277344 39.941406 C 47.546875 39.941406 45.359375 37.753906 45.359375 35.023438 L 45.359375 27.085938 Z M 10.585938 27.835938 L 44.609375 27.835938 L 44.609375 35.023438 C 44.609375 38.15625 47.140625 40.691406 50.277344 40.691406 L 121.34375 40.691406 L 121.34375 106.84375 C 121.34375 109.574219 119.160156 111.761719 116.429688 111.761719 L 10.585938 111.761719 C 7.855469 111.761719 5.667969 109.574219 5.667969 106.84375 L 5.667969 32.753906 C 5.667969 30.023438 7.855469 27.835938 10.585938 27.835938 Z M 10.585938 27.835938 "/>
<path style="fill-rule:nonzero;fill:url(#linear3);stroke-width:3;stroke-linecap:round;stroke-linejoin:miter;stroke:rgb(12.941177%,12.941177%,12.941177%);stroke-opacity:1;stroke-miterlimit:4;" d="M 222.244402 -9.91021 C 210.526771 -9.91021 201.090172 -0.473611 201.090172 11.24402 C 201.090172 22.977274 210.526771 32.413873 222.244402 32.413873 C 233.977656 32.413873 243.414255 22.977274 243.414255 11.24402 C 243.414255 -0.473611 233.977656 -9.91021 222.244402 -9.91021 Z M 285.753962 32.413873 C 259.287739 32.413873 259.287739 106.500548 243.414255 106.500548 C 227.540771 106.500548 222.244402 64.160841 211.667287 64.160841 C 195.793803 64.160841 179.920318 116.921428 179.920318 148.840255 C 179.920318 154.699071 184.638618 159.41737 190.497433 159.41737 L 317.50093 159.41737 C 323.359746 159.41737 328.078045 154.699071 328.078045 148.840255 C 328.859221 107.391088 312.204561 32.413873 285.753962 32.413873 Z M 285.753962 32.413873 " transform="matrix(0.250024,0,0,0.250024,0,53.755133)"/>
</g>
</svg>

<svg xmlns="http://www.w3.org/2000/svg" width="128pt" height="128pt" viewBox="0 0 128 128"><defs><linearGradient id="a" gradientUnits="userSpaceOnUse" x1="254" y1="233.5" x2="254" y2="254.667" gradientTransform="matrix(.25002 0 0 .25002 0 53.755)"><stop offset="0" stop-opacity=".275"/><stop offset="1" stop-opacity="0"/></linearGradient><radialGradient id="b" gradientUnits="userSpaceOnUse" cx="450.909" cy="189.579" fx="450.909" fy="189.579" r="21.167" gradientTransform="matrix(0 -.31253 -.56255 0 216.46 254.381)"><stop offset="0" stop-opacity=".314"/><stop offset=".222" stop-opacity=".275"/><stop offset="1" stop-opacity="0"/></radialGradient><radialGradient id="c" gradientUnits="userSpaceOnUse" cx="450.909" cy="189.579" fx="450.909" fy="189.579" r="21.167" gradientTransform="matrix(0 .31253 .56255 0 -89.449 -30.11)"><stop offset="0" stop-opacity=".314"/><stop offset=".222" stop-opacity=".275"/><stop offset="1" stop-opacity="0"/></radialGradient><radialGradient id="d" gradientUnits="userSpaceOnUse" cx="450.909" cy="189.579" fx="450.909" fy="189.579" r="21.167" gradientTransform="matrix(0 -.31253 .56255 0 -89.449 254.381)"><stop offset="0" stop-opacity=".314"/><stop offset=".222" stop-opacity=".275"/><stop offset="1" stop-opacity="0"/></radialGradient><radialGradient id="e" gradientUnits="userSpaceOnUse" cx="450.909" cy="189.579" fx="450.909" fy="189.579" r="21.167" gradientTransform="matrix(0 .31253 -.56255 0 216.46 -30.11)"><stop offset="0" stop-opacity=".314"/><stop offset=".222" stop-opacity=".275"/><stop offset="1" stop-opacity="0"/></radialGradient><linearGradient id="f" gradientUnits="userSpaceOnUse" x1="592.61" y1="230.791" x2="592.61" y2="-531.136" gradientTransform="matrix(.12502 0 0 .12502 0 83.281)"><stop offset="0" stop-color="#424242"/><stop offset="1" stop-color="#616161"/></linearGradient><linearGradient id="g" gradientUnits="userSpaceOnUse" x1="359.799" y1="230.791" x2="359.799" y2="-531.136" gradientTransform="matrix(.12502 0 0 .12502 0 83.281)"><stop offset="0" stop-color="#616161"/><stop offset="1" stop-color="#757575"/></linearGradient><linearGradient id="h" gradientUnits="userSpaceOnUse" x1="960" y1="1735.117" x2="960" y2="295.117" gradientTransform="matrix(.26458 0 0 .26458 0 -225.583)"><stop offset="0" stop-color="#424242"/><stop offset="1" stop-color="#616161"/></linearGradient></defs><path d="M15.875 112.137h95.262v5.293H15.875zm0 0" fill="url(#a)"/><path d="M111.137 112.137h10.582v-5.293h-10.582zm0 0" fill="url(#b)"/><path d="M15.875 112.137H5.293v5.293h10.582zm0 0" fill="url(#c)"/><path d="M15.875 112.137H5.293v-5.293h10.582zm0 0" fill="url(#d)"/><path d="M111.137 112.137h10.582v5.293h-10.582zm0 0" fill="url(#e)"/><path d="M29.105 16.875h86a5.295 5.295 0 0 1 5.293 5.293v19.848a5.291 5.291 0 0 1-5.293 5.289h-86a5.288 5.288 0 0 1-5.289-5.29V22.169a5.291 5.291 0 0 1 5.29-5.293zm0 0" fill="url(#f)"/><path d="M29.105 16.875a5.281 5.281 0 0 0-5.289 5.293v.664a5.279 5.279 0 0 1 5.29-5.293h86c2.93 0 5.292 2.36 5.292 5.293v-.664a5.285 5.285 0 0 0-5.293-5.293zm0 0" fill="#e6e6e6" fill-opacity=".588"/><path d="M29.105 16.5a5.661 5.661 0 0 0-5.664 5.668v19.848a5.661 5.661 0 0 0 5.664 5.668h86a5.665 5.665 0 0 0 5.668-5.668V22.168a5.665 5.665 0 0 0-5.668-5.668zm0 .75h86a4.9 4.9 0 0 1 4.918 4.918v19.848a4.9 4.9 0 0 1-4.918 4.918h-86a4.896 4.896 0 0 1-4.914-4.918V22.168a4.896 4.896 0 0 1 4.914-4.918zm0 0" fill="#212121"/><path d="M10.586 27.46a5.28 5.28 0 0 0-5.293 5.294v74.09c0 2.93 2.36 5.293 5.293 5.293H116.43c2.93 0 5.289-2.364 5.289-5.293V40.69H50.277a5.28 5.28 0 0 1-5.293-5.293v-7.937zm0 0" fill="url(#g)"/><path d="M10.586 112.137a5.28 5.28 0 0 1-5.293-5.293v-.66c0 2.93 2.36 5.289 5.293 5.289H116.43c2.93 0 5.289-2.36 5.289-5.29v.66a5.279 5.279 0 0 1-5.29 5.294zm0 0" fill-opacity=".196"/><path d="M10.586 27.46a5.28 5.28 0 0 0-5.293 5.294v.66c0-2.93 2.36-5.293 5.293-5.293h34.398v-.66zm0 0M49.945 41.023a5.282 5.282 0 0 1-5.293-5.293v-.66c0 2.93 2.36 5.297 5.293 5.29h71.774v.663zm0 0" fill="#e6e6e6" fill-opacity=".937"/><path d="M10.586 27.086a5.665 5.665 0 0 0-5.668 5.668v74.09a5.665 5.665 0 0 0 5.668 5.668H116.43a5.661 5.661 0 0 0 5.664-5.668V39.94H50.277a4.9 4.9 0 0 1-4.918-4.918v-7.937zm0 .75h34.023v7.187a5.662 5.662 0 0 0 5.668 5.668h71.067v66.153a4.896 4.896 0 0 1-4.914 4.918H10.586a4.9 4.9 0 0 1-4.918-4.918v-74.09a4.9 4.9 0 0 1 4.918-4.918zm0 0" fill="#212121"/><path d="M222.244-9.91a21.11 21.11 0 0 0-21.154 21.154c0 11.733 9.437 21.17 21.154 21.17a21.117 21.117 0 0 0 21.17-21.17c0-11.718-9.436-21.154-21.17-21.154zm63.51 42.324c-26.466 0-26.466 74.087-42.34 74.087-15.873 0-21.17-42.34-31.747-42.34-15.873 0-31.747 52.76-31.747 84.68a10.555 10.555 0 0 0 10.577 10.576h127.004a10.555 10.555 0 0 0 10.577-10.577c.781-41.449-15.873-116.426-42.324-116.426zm0 0" transform="matrix(.25002 0 0 .25002 0 53.755)" fill="url(#h)" stroke-width="3" stroke-linecap="round" stroke="#212121"/></svg>
